X:1980
T:Boys of Ballysadare
R:slip jig
S:Kathleen collins
M:9/8
Q:130
K:G
|:D2G G2A B2d|ege d2e .g3|D2G G2A B2G|AGA B2G E2D |
D2G G2A B2d|ege d2e g2a|b2a g2e d2B|~A3 B2G E2D:|
|:B2d {e}d2B d2B|d3 d2f g3|B2d d2B d2B|AGA B2G E2D|
B2d d2B d2B|d3 def g2a|b2a g2e d2B|AGA B2G E2D :|


